svgs/shosetsu.svg

<svg xmlns="http://www.w3.org/2000/svg" viewBox="0 0 192 192"><path d="M91.396 49.779v92.442M57.881 70.771h67.031v27.806M51.068 98.578h89.864c0 20.256-5.524 31.673-13.995 31.673h-14.548m10.128-75.5a65.66 65.66 0 0 1 18.047 13.258" fill="none" stroke="#000" stroke-width="8" stroke-linecap="round" stroke-linejoin="round"/><path d="M96 16.5a79.529 79.529 0 0 0-56.215 23.285A79.529 79.529 0 0 0 16.5 96a79.529 79.529 0 0 0 23.285 56.215A79.529 79.529 0 0 0 96 175.5a79.529 79.529 0 0 0 56.215-23.285A79.529 79.529 0 0 0 175.5 96a79.529 79.529 0 0 0-23.285-56.215A79.529 79.529 0 0 0 96 16.5Z" fill="none" stroke="#000" stroke-width="8" stroke-linecap="round" stroke-linejoin="round"/></svg>

<svg
    xmlns="http://www.w3.org/2000/svg"
    viewBox="0 0 192 192"
    id="vector">
    <path
        id="path"
        d="M 91.396 49.779 L 91.396 142.221"
        fill="none"
        stroke="#000000"
        stroke-width="8"
        stroke-linecap="round"
        stroke-linejoin="round"/>
    <path
        id="path_1"
        d="M 57.881 70.771 L 124.912 70.771 L 124.912 98.577"
        fill="none"
        stroke="#000000"
        stroke-width="8"
        stroke-linecap="round"
        stroke-linejoin="round"/>
    <path
        id="path_2"
        d="M 51.068 98.578 L 140.932 98.578 C 140.932 118.834 135.408 130.251 126.937 130.251 L 112.389 130.251 M 122.517 54.751 C 129.247 58.104 135.352 62.589 140.564 68.009"
        fill="none"
        stroke="#000000"
        stroke-width="8"
        stroke-linecap="round"
        stroke-linejoin="round"/>
    <path
        id="path_3"
        d="M 96 16.5 C 74.923 16.5 54.688 24.882 39.785 39.785 C 24.882 54.688 16.5 74.923 16.5 96 C 16.5 117.077 24.882 137.312 39.785 152.215 C 54.688 167.118 74.923 175.5 96 175.5 C 117.077 175.5 137.312 167.118 152.215 152.215 C 167.118 137.312 175.5 117.077 175.5 96 C 175.5 74.923 167.118 54.688 152.215 39.785 C 137.312 24.882 117.077 16.5 96 16.5 Z"
        fill="none"
        stroke="#000000"
        stroke-width="8"
        stroke-linecap="round"
        stroke-linejoin="round"/>
</svg>
